X:1
T:The Losing of the Whale
M:4/4
L:1/4
K:Bb
 E| E F C/2C/2 D| E F C G| c3/2 G/2 F E| F3| G| c G F A| G/2 E C/2- C D|\
 E G F3/2 D/2| C3||
